packages/core/src/svgs/tokens/branded/VEMP.svg

<svg width="24" height="24" viewBox="0 0 24 24" fill="none" xmlns="http://www.w3.org/2000/svg">
<path d="M21.0539 3.45859H2.65703V4.11562H21.0539V3.45859ZM21.0539 19.8844H2.65703V20.5414H21.0539V19.8844ZM20.732 4.77264H11.8555V5.1143H12.1905C13.1367 5.1143 13.8266 5.87646 13.8266 6.82259V17.1248C13.8266 18.0709 13.1367 18.8857 12.1905 18.8857H11.8555V19.2273H20.732L22 15.9422H21.6189L21.3167 16.5467C21.0276 17.1316 20.5867 17.628 20.0398 17.984C19.4931 18.3399 18.8607 18.5425 18.2089 18.5704H15.1406V12.3416H18.3732C18.9383 12.3416 19.3982 12.8016 19.3982 13.3667V13.7082H19.7398V10.2918H19.3982V10.6333C19.3982 11.1984 18.9383 11.6584 18.3732 11.6584H15.1406V5.42969H19.0237C19.7792 5.42969 20.3969 6.067 20.3969 6.82259V7.40077H20.732V4.77264ZM2 11.9999H4.62811V12.1971C4.26675 12.1971 4.03679 12.565 4.18135 12.8936L6.36267 17.6899L8.46518 13.0513C8.50698 12.959 8.52498 12.8578 8.5175 12.757C8.51002 12.6559 8.47732 12.5586 8.42239 12.4735C8.36746 12.3886 8.29205 12.3186 8.2031 12.2704C8.11415 12.2221 8.01448 12.1969 7.91327 12.1971V11.9999H10.5414V12.1971C9.95006 12.1971 9.41134 12.5454 9.1616 13.0841L6.35611 19.2273H6.0933L3.28778 13.0249C3.17606 12.7773 2.99498 12.5673 2.76644 12.4204C2.53789 12.2734 2.27169 12.1959 2 12.1971V11.9999Z" fill="white"/>
</svg>

<svg xmlns="http://www.w3.org/2000/svg" width="24" height="24" fill="none" viewBox="0 0 24 24">
    <path fill="#fff" d="M21.054 3.459H2.657v.657h18.397zm0 16.425H2.657v.657h18.397zm-.322-15.111h-8.876v.341h.335c.946 0 1.636.762 1.636 1.709v10.302c0 .946-.69 1.76-1.636 1.76h-.336v.342h8.877L22 15.942h-.381l-.302.605a3.64 3.64 0 0 1-3.108 2.023H15.14v-6.228h3.232c.565 0 1.025.46 1.025 1.025v.341h.342v-3.416h-.342v.341c0 .565-.46 1.025-1.025 1.025H15.14V5.43h3.883c.755 0 1.373.637 1.373 1.393V7.4h.335zM2 12h2.628v.197a.49.49 0 0 0-.447.697l2.182 4.796 2.102-4.639a.605.605 0 0 0-.552-.854V12h2.628v.197c-.59 0-1.13.348-1.38.887l-2.805 6.143h-.263l-2.805-6.202A1.41 1.41 0 0 0 2 12.197z"/>
</svg>
